bag-personal-outline.svg

<svg fill="currentColor" viewBox="0 0 24 24"><path d="M16 5V4a2 2 0 0 0-2-2h-4a2 2 0 0 0-2 2v1a4 4 0 0 0-4 4v11a2 2 0 0 0 2 2h12a2 2 0 0 0 2-2V9a4 4 0 0 0-4-4m-6-1h4v1h-4zm2 5 2 2-2 2-2-2zm6 11H6v-4h2v2h1v-2h9zm0-5H6V9a2 2 0 0 1 2-2h8a2 2 0 0 1 2 2z"/></svg>

<svg  viewBox="0 0 24 24" fill="currentColor"><path  d="M16,5V4A2,2 0 0,0 14,2H10A2,2 0 0,0 8,4V5A4,4 0 0,0 4,9V20A2,2 0 0,0 6,22H18A2,2 0 0,0 20,20V9A4,4 0 0,0 16,5M10,4H14V5H10V4M12,9L14,11L12,13L10,11L12,9M18,20H6V16H8V18H9V16H18V20M18,15H6V9A2,2 0 0,1 8,7H16A2,2 0 0,1 18,9V15Z"/></svg>
